X:233
T:Savior, Like A Shepherd Lead Us
%%stretchlast false
M:4/4
L:1/4
K:C clef=C1
"^I"[C,G,CE] [C,G,CE] [C,G,CE]/ "^V7³"[F,G,B,D]/ "^I¹"[E,G,CE]/ "^v7²"[D,G,DF]/ | "^I"[C,G,EG] [C,G,Ec] [C,CEG] [C,G,CE] | "^V"[G,,G,B,D] "^I²"[G,,G,CE] "^v7"[G,,G,DF]/ "^IV"[G,,G,FA]/ [G,,G,EG]/ "^v7"[G,,G,DF]/ | "^I"[C,G,CE]3 "^i"[C,C] | "^I"[C,G,CE] [C,G,CE]/ "^iii"[F,G,B,E]/ "^I¹"[E,G,CE]/ "^v"[D,G,D]/ "^I"[C,G,E]/ [C,G,EF]/ | [C,G,EG] [C,G,Ec] "^i"[C,CG] "^iii¹"[G,,G,B,E] | "^i"[G,,G,CD] [G,,G,DE]/ [G,,G,EF]/ "^iii"[G,,G,EF]/ "^v"[G,,G,DA]/ "^i"[C,G,CG]/ [C,G,CF]/ | "^I"[C,G,CE]2 [C,G,E]/ [C,G,E]/ "^iv"[F,CFG]/ [F,CFG]/ | "^IV"[F,CA] [F,CAc] [F,CGc]/ "^iv"[F,CFc]/ "^I7"[C,CEB]/ "^vi¹"[C,CEA]/ | "^i"[C,CG] "^I"[C,G,CE] [C,G,CE]/ [C,G,CE]/ "^iii¹"[G,,G,B,E]/ [G,,G,B,E]/ | "^v7"[G,,G,DF] "^vi"[G,,G,EA] [G,,G,DG] "^iv"[C,G,CF] | "^I"[C,G,CE]2 [C,G,E]/ [C,G,E]/ "^iv"[F,CFG]/ [F,CFG]/ | "^IV"[F,CA] [F,CAc] [F,CGc]/ "^iv"[F,CFc]/ "^I7"[C,CEB]/ "^vi¹"[C,CEA]/ | "^I"[C,CEG] [C,G,Ec] "^i"[C,G,Cc]/ [C,G,Cc]/ "^I"[C,E,C]/ "^ii7³"[C,F,CD]/ | "^I"[C,G,E] [G,,G,DG] [G,,G,DF]/ "^V7"[G,,G,B,F]/ "^iv"[C,G,CF]/ [C,F,CD]/ | "^I"[C,E,C]3 |]
